src/health.svg

<svg viewBox="0 0 24 24" xmlns="http://www.w3.org/2000/svg" xmlns:xlink="http://www.w3.org/1999/xlink"><path d="M9.5 8.5l5 10.5 3.5-6h4v-2h-5l-2.5 4.5L9.5 5 6 11H2v2h5z"/></svg>

<svg width="24" height="24" viewBox="0 0 24 24" xmlns="http://www.w3.org/2000/svg">
<path d="M9.5 8.5L14.5 19L18 13H22V11H17L14.5 15.5L9.5 5L6 11H2V13H7L9.5 8.5Z" fill="currentColor"/>
</svg>
